X:1
T:[ID 1-51b]
T:[ID 1-51b]
T:Bezeichnung standardisiert: Tantz Tantz
T:Urheber unbekannt Datum in der hier transkribierten schriftlichen Quelle: vermutlich vor 1767
C:Urheber unbekannt
C:Datum in der hier transkribierten schriftlichen Quelle: vermutlich vor 1767
L:1/8
M:3/4
K:D
V:1 treble 
V:1
 a4 g2 | f4 e2 | d2 e2 f2 | efge f2 | a2 g2 f2 | e6 :: e4 f2 | efgefd | e4 f2 | efgefg | af af af | %11
 e2 d4 :| %12

